images/6605101.svg

<?xml version="1.0" encoding="UTF-8"?>
<svg xmlns="http://www.w3.org/2000/svg" xmlns:xlink="http://www.w3.org/1999/xlink" width="300pt" height="300pt" viewBox="0 0 300 300" version="1.1">
<defs>
<g>
<symbol overflow="visible" id="glyph0-0">
<path style="stroke:none;" d="M 0.453125 1.59375 L 0.453125 -6.34375 L 4.953125 -6.34375 L 4.953125 1.59375 Z M 0.953125 1.09375 L 4.453125 1.09375 L 4.453125 -5.84375 L 0.953125 -5.84375 Z M 0.953125 1.09375 "/>
</symbol>
<symbol overflow="visible" id="glyph0-1">
<path style="stroke:none;" d="M 0.890625 -6.5625 L 2.078125 -6.5625 L 4.984375 -1.078125 L 4.984375 -6.5625 L 5.84375 -6.5625 L 5.84375 0 L 4.65625 0 L 1.75 -5.484375 L 1.75 0 L 0.890625 0 Z M 0.890625 -6.5625 "/>
</symbol>
<symbol overflow="visible" id="glyph0-2">
<path style="stroke:none;" d="M 3.546875 -5.953125 C 2.898438 -5.953125 2.382812 -5.710938 2 -5.234375 C 1.625 -4.753906 1.4375 -4.101562 1.4375 -3.28125 C 1.4375 -2.445312 1.625 -1.789062 2 -1.3125 C 2.382812 -0.832031 2.898438 -0.59375 3.546875 -0.59375 C 4.191406 -0.59375 4.703125 -0.832031 5.078125 -1.3125 C 5.453125 -1.789062 5.640625 -2.445312 5.640625 -3.28125 C 5.640625 -4.101562 5.453125 -4.753906 5.078125 -5.234375 C 4.703125 -5.710938 4.191406 -5.953125 3.546875 -5.953125 Z M 3.546875 -6.6875 C 4.460938 -6.6875 5.195312 -6.375 5.75 -5.75 C 6.300781 -5.132812 6.578125 -4.3125 6.578125 -3.28125 C 6.578125 -2.238281 6.300781 -1.410156 5.75 -0.796875 C 5.195312 -0.179688 4.460938 0.125 3.546875 0.125 C 2.617188 0.125 1.878906 -0.179688 1.328125 -0.796875 C 0.773438 -1.410156 0.5 -2.238281 0.5 -3.28125 C 0.5 -4.3125 0.773438 -5.132812 1.328125 -5.75 C 1.878906 -6.375 2.617188 -6.6875 3.546875 -6.6875 Z M 3.546875 -6.6875 "/>
</symbol>
</g>
</defs>
<g id="surface48773">
<rect x="0" y="0" width="300" height="300" style="fill:rgb(100%,100%,100%);fill-opacity:1;stroke:none;"/>
<path style="fill:none;stroke-width:1.2;stroke-linecap:butt;stroke-linejoin:miter;stroke:rgb(0%,0%,0%);stroke-opacity:1;stroke-miterlimit:10;" d="M 35.25 159.730469 L 52.296875 165.207031 "/>
<path style="fill:none;stroke-width:1.2;stroke-linecap:butt;stroke-linejoin:miter;stroke:rgb(0%,0%,0%);stroke-opacity:1;stroke-miterlimit:10;" d="M 52.296875 165.207031 L 58.929688 159.199219 "/>
<path style="fill:none;stroke-width:1.2;stroke-linecap:butt;stroke-linejoin:miter;stroke:rgb(0%,0%,100%);stroke-opacity:1;stroke-miterlimit:10;" d="M 58.929688 159.199219 L 65.5625 153.1875 "/>
<path style="fill:none;stroke-width:1.2;stroke-linecap:butt;stroke-linejoin:miter;stroke:rgb(0%,0%,100%);stroke-opacity:1;stroke-miterlimit:10;" d="M 65.5625 153.1875 L 63.671875 144.4375 "/>
<path style="fill:none;stroke-width:1.2;stroke-linecap:butt;stroke-linejoin:miter;stroke:rgb(0%,0%,0%);stroke-opacity:1;stroke-miterlimit:10;" d="M 63.671875 144.4375 L 61.78125 135.6875 "/>
<path style="fill:none;stroke-width:1.2;stroke-linecap:butt;stroke-linejoin:miter;stroke:rgb(0%,0%,100%);stroke-opacity:1;stroke-miterlimit:10;" d="M 65.5625 153.1875 L 74.085938 155.925781 "/>
<path style="fill:none;stroke-width:1.2;stroke-linecap:butt;stroke-linejoin:miter;stroke:rgb(0%,0%,0%);stroke-opacity:1;stroke-miterlimit:10;" d="M 74.085938 155.925781 L 82.605469 158.664062 "/>
<path style=" stroke:none;fill-rule:nonzero;fill:rgb(100%,100%,100%);fill-opacity:1;" d="M 62.5625 147.6875 L 69.5625 147.6875 L 69.5625 158.6875 L 62.5625 158.6875 Z M 62.5625 147.6875 "/>
<g style="fill:rgb(0%,0%,100%);fill-opacity:1;">
  <use xlink:href="#glyph0-1" x="62.5625" y="156.350586"/>
</g>
<path style="fill:none;stroke-width:1.2;stroke-linecap:butt;stroke-linejoin:miter;stroke:rgb(0%,0%,0%);stroke-opacity:1;stroke-miterlimit:10;" d="M 61.78125 135.6875 L 44.738281 130.207031 "/>
<path style="fill:none;stroke-width:1.2;stroke-linecap:butt;stroke-linejoin:miter;stroke:rgb(0%,0%,0%);stroke-opacity:1;stroke-miterlimit:10;" d="M 82.605469 158.664062 L 95.875 146.640625 "/>
<path style="fill:none;stroke-width:1.2;stroke-linecap:butt;stroke-linejoin:miter;stroke:rgb(0%,0%,0%);stroke-opacity:1;stroke-miterlimit:10;" d="M 95.875 146.640625 L 112.917969 152.121094 "/>
<path style="fill:none;stroke-width:1.2;stroke-linecap:butt;stroke-linejoin:miter;stroke:rgb(0%,0%,0%);stroke-opacity:1;stroke-miterlimit:10;" d="M 112.917969 152.121094 L 126.183594 140.097656 "/>
<path style="fill:none;stroke-width:1.2;stroke-linecap:butt;stroke-linejoin:miter;stroke:rgb(0%,0%,0%);stroke-opacity:1;stroke-miterlimit:10;" d="M 126.183594 140.097656 L 122.40625 122.597656 "/>
<path style="fill:none;stroke-width:1.2;stroke-linecap:butt;stroke-linejoin:miter;stroke:rgb(0%,0%,0%);stroke-opacity:1;stroke-miterlimit:10;" d="M 126.183594 140.097656 L 134.707031 142.835938 "/>
<path style="fill:none;stroke-width:1.2;stroke-linecap:butt;stroke-linejoin:miter;stroke:rgb(0%,0%,100%);stroke-opacity:1;stroke-miterlimit:10;" d="M 134.707031 142.835938 L 143.230469 145.574219 "/>
<path style="fill:none;stroke-width:1.2;stroke-linecap:butt;stroke-linejoin:miter;stroke:rgb(0%,0%,100%);stroke-opacity:1;stroke-miterlimit:10;" d="M 143.230469 145.574219 L 150.457031 140.289062 "/>
<path style="fill:none;stroke-width:1.2;stroke-linecap:butt;stroke-linejoin:miter;stroke:rgb(0%,0%,0%);stroke-opacity:1;stroke-miterlimit:10;" d="M 150.457031 140.289062 L 157.679688 135.003906 "/>
<path style="fill:none;stroke-width:1.2;stroke-linecap:butt;stroke-linejoin:miter;stroke:rgb(0%,0%,0%);stroke-opacity:1;stroke-miterlimit:10;" d="M 148.816406 162.585938 L 146.023438 154.078125 "/>
<path style="fill:none;stroke-width:1.2;stroke-linecap:butt;stroke-linejoin:miter;stroke:rgb(0%,0%,100%);stroke-opacity:1;stroke-miterlimit:10;" d="M 146.023438 154.078125 L 143.230469 145.574219 "/>
<path style=" stroke:none;fill-rule:nonzero;fill:rgb(100%,100%,100%);fill-opacity:1;" d="M 140.230469 140.074219 L 147.230469 140.074219 L 147.230469 151.074219 L 140.230469 151.074219 Z M 140.230469 140.074219 "/>
<g style="fill:rgb(0%,0%,100%);fill-opacity:1;">
  <use xlink:href="#glyph0-1" x="140.230469" y="148.737305"/>
</g>
<path style="fill:none;stroke-width:1.2;stroke-linecap:butt;stroke-linejoin:miter;stroke:rgb(0%,0%,0%);stroke-opacity:1;stroke-miterlimit:10;" d="M 157.679688 135.003906 L 172.199219 145.480469 "/>
<path style="fill:none;stroke-width:1.2;stroke-linecap:butt;stroke-linejoin:miter;stroke:rgb(0%,0%,0%);stroke-opacity:1;stroke-miterlimit:10;" d="M 161.597656 132.636719 L 173.210938 141.019531 "/>
<path style="fill:none;stroke-width:1.2;stroke-linecap:butt;stroke-linejoin:miter;stroke:rgb(0%,0%,100%);stroke-opacity:1;stroke-miterlimit:10;" d="M 159.496094 117.191406 L 158.585938 126.097656 "/>
<path style="fill:none;stroke-width:1.2;stroke-linecap:butt;stroke-linejoin:miter;stroke:rgb(0%,0%,0%);stroke-opacity:1;stroke-miterlimit:10;" d="M 158.585938 126.097656 L 157.679688 135.003906 "/>
<path style="fill:none;stroke-width:1.2;stroke-linecap:butt;stroke-linejoin:miter;stroke:rgb(0%,0%,0%);stroke-opacity:1;stroke-miterlimit:10;" d="M 172.199219 145.480469 L 188.53125 138.148438 "/>
<path style="fill:none;stroke-width:1.2;stroke-linecap:butt;stroke-linejoin:miter;stroke:rgb(0%,0%,0%);stroke-opacity:1;stroke-miterlimit:10;" d="M 172.199219 145.480469 L 169.460938 154.003906 "/>
<path style="fill:none;stroke-width:1.2;stroke-linecap:butt;stroke-linejoin:miter;stroke:rgb(0%,0%,100%);stroke-opacity:1;stroke-miterlimit:10;" d="M 169.460938 154.003906 L 166.722656 162.527344 "/>
<path style="fill:none;stroke-width:1.2;stroke-linecap:butt;stroke-linejoin:miter;stroke:rgb(0%,0%,0%);stroke-opacity:1;stroke-miterlimit:10;" d="M 188.53125 138.148438 L 189.4375 129.242188 "/>
<path style="fill:none;stroke-width:1.2;stroke-linecap:butt;stroke-linejoin:miter;stroke:rgb(0%,0%,100%);stroke-opacity:1;stroke-miterlimit:10;" d="M 189.4375 129.242188 L 190.34375 120.335938 "/>
<path style="fill:none;stroke-width:1.2;stroke-linecap:butt;stroke-linejoin:miter;stroke:rgb(0%,0%,0%);stroke-opacity:1;stroke-miterlimit:10;" d="M 184.519531 135.9375 L 185.246094 128.816406 "/>
<path style="fill:none;stroke-width:1.2;stroke-linecap:butt;stroke-linejoin:miter;stroke:rgb(0%,0%,100%);stroke-opacity:1;stroke-miterlimit:10;" d="M 185.246094 128.816406 L 185.972656 121.691406 "/>
<path style="fill:none;stroke-width:1.2;stroke-linecap:butt;stroke-linejoin:miter;stroke:rgb(0%,0%,0%);stroke-opacity:1;stroke-miterlimit:10;" d="M 188.53125 138.148438 L 195.789062 143.386719 "/>
<path style="fill:none;stroke-width:1.2;stroke-linecap:butt;stroke-linejoin:miter;stroke:rgb(0%,0%,100%);stroke-opacity:1;stroke-miterlimit:10;" d="M 195.789062 143.386719 L 203.050781 148.625 "/>
<path style="fill:none;stroke-width:1.2;stroke-linecap:butt;stroke-linejoin:miter;stroke:rgb(0%,0%,100%);stroke-opacity:1;stroke-miterlimit:10;" d="M 190.34375 120.335938 L 183.085938 115.097656 "/>
<path style="fill:none;stroke-width:1.2;stroke-linecap:butt;stroke-linejoin:miter;stroke:rgb(0%,0%,0%);stroke-opacity:1;stroke-miterlimit:10;" d="M 183.085938 115.097656 L 175.828125 109.859375 "/>
<path style=" stroke:none;fill-rule:nonzero;fill:rgb(100%,100%,100%);fill-opacity:1;" d="M 187.34375 114.835938 L 194.34375 114.835938 L 194.34375 125.835938 L 187.34375 125.835938 Z M 187.34375 114.835938 "/>
<g style="fill:rgb(0%,0%,100%);fill-opacity:1;">
  <use xlink:href="#glyph0-1" x="187.34375" y="123.499023"/>
</g>
<path style="fill:none;stroke-width:1.2;stroke-linecap:butt;stroke-linejoin:miter;stroke:rgb(0%,0%,0%);stroke-opacity:1;stroke-miterlimit:10;" d="M 175.828125 109.859375 L 167.660156 113.527344 "/>
<path style="fill:none;stroke-width:1.2;stroke-linecap:butt;stroke-linejoin:miter;stroke:rgb(0%,0%,100%);stroke-opacity:1;stroke-miterlimit:10;" d="M 167.660156 113.527344 L 159.496094 117.191406 "/>
<path style="fill:none;stroke-width:1.2;stroke-linecap:butt;stroke-linejoin:miter;stroke:rgb(0%,0%,0%);stroke-opacity:1;stroke-miterlimit:10;" d="M 175.917969 114.433594 L 169.386719 117.367188 "/>
<path style="fill:none;stroke-width:1.2;stroke-linecap:butt;stroke-linejoin:miter;stroke:rgb(0%,0%,100%);stroke-opacity:1;stroke-miterlimit:10;" d="M 169.386719 117.367188 L 162.855469 120.300781 "/>
<path style="fill:none;stroke-width:1.2;stroke-linecap:butt;stroke-linejoin:miter;stroke:rgb(0%,0%,0%);stroke-opacity:1;stroke-miterlimit:10;" d="M 175.828125 109.859375 L 177.640625 92.046875 "/>
<path style=" stroke:none;fill-rule:nonzero;fill:rgb(100%,100%,100%);fill-opacity:1;" d="M 156.496094 111.691406 L 163.496094 111.691406 L 163.496094 122.691406 L 156.496094 122.691406 Z M 156.496094 111.691406 "/>
<g style="fill:rgb(0%,0%,100%);fill-opacity:1;">
  <use xlink:href="#glyph0-1" x="156.496094" y="120.354492"/>
</g>
<path style="fill:none;stroke-width:1.2;stroke-linecap:butt;stroke-linejoin:miter;stroke:rgb(0%,0%,100%);stroke-opacity:1;stroke-miterlimit:10;" d="M 203.050781 148.625 L 211.214844 144.957031 "/>
<path style="fill:none;stroke-width:1.2;stroke-linecap:butt;stroke-linejoin:miter;stroke:rgb(0%,0%,0%);stroke-opacity:1;stroke-miterlimit:10;" d="M 211.214844 144.957031 L 219.382812 141.289062 "/>
<path style="fill:none;stroke-width:1.2;stroke-linecap:butt;stroke-linejoin:miter;stroke:rgb(0%,0%,100%);stroke-opacity:1;stroke-miterlimit:10;" d="M 203.050781 148.625 L 202.140625 157.53125 "/>
<path style="fill:none;stroke-width:1.2;stroke-linecap:butt;stroke-linejoin:miter;stroke:rgb(0%,0%,0%);stroke-opacity:1;stroke-miterlimit:10;" d="M 202.140625 157.53125 L 201.234375 166.4375 "/>
<path style=" stroke:none;fill-rule:nonzero;fill:rgb(100%,100%,100%);fill-opacity:1;" d="M 200.050781 143.125 L 207.050781 143.125 L 207.050781 154.125 L 200.050781 154.125 Z M 200.050781 143.125 "/>
<g style="fill:rgb(0%,0%,100%);fill-opacity:1;">
  <use xlink:href="#glyph0-1" x="200.050781" y="151.788086"/>
</g>
<path style="fill:none;stroke-width:1.2;stroke-linecap:butt;stroke-linejoin:miter;stroke:rgb(0%,0%,0%);stroke-opacity:1;stroke-miterlimit:10;" d="M 219.382812 141.289062 L 233.898438 151.765625 "/>
<path style="fill:none;stroke-width:1.2;stroke-linecap:butt;stroke-linejoin:miter;stroke:rgb(0%,0%,0%);stroke-opacity:1;stroke-miterlimit:10;" d="M 233.898438 151.765625 L 242.066406 148.097656 "/>
<path style="fill:none;stroke-width:1.2;stroke-linecap:butt;stroke-linejoin:miter;stroke:rgb(100%,0%,0%);stroke-opacity:1;stroke-miterlimit:10;" d="M 242.066406 148.097656 L 250.230469 144.433594 "/>
<path style="fill:none;stroke-width:1.2;stroke-linecap:butt;stroke-linejoin:miter;stroke:rgb(100%,0%,0%);stroke-opacity:1;stroke-miterlimit:10;" d="M 250.230469 144.433594 L 257.492188 149.671875 "/>
<path style="fill:none;stroke-width:1.2;stroke-linecap:butt;stroke-linejoin:miter;stroke:rgb(0%,0%,0%);stroke-opacity:1;stroke-miterlimit:10;" d="M 257.492188 149.671875 L 264.75 154.910156 "/>
<path style=" stroke:none;fill-rule:nonzero;fill:rgb(100%,100%,100%);fill-opacity:1;" d="M 246.230469 138.933594 L 254.230469 138.933594 L 254.230469 149.933594 L 246.230469 149.933594 Z M 246.230469 138.933594 "/>
<g style="fill:rgb(100%,0%,0%);fill-opacity:1;">
  <use xlink:href="#glyph0-2" x="246.230469" y="147.59668"/>
</g>
<path style="fill:none;stroke-width:1.2;stroke-linecap:butt;stroke-linejoin:miter;stroke:rgb(0%,0%,0%);stroke-opacity:1;stroke-miterlimit:10;" d="M 201.234375 166.4375 L 215.753906 176.914062 "/>
<path style="fill:none;stroke-width:1.2;stroke-linecap:butt;stroke-linejoin:miter;stroke:rgb(0%,0%,0%);stroke-opacity:1;stroke-miterlimit:10;" d="M 215.753906 176.914062 L 214.847656 185.820312 "/>
<path style="fill:none;stroke-width:1.2;stroke-linecap:butt;stroke-linejoin:miter;stroke:rgb(100%,0%,0%);stroke-opacity:1;stroke-miterlimit:10;" d="M 214.847656 185.820312 L 213.9375 194.722656 "/>
<path style="fill:none;stroke-width:1.2;stroke-linecap:butt;stroke-linejoin:miter;stroke:rgb(100%,0%,0%);stroke-opacity:1;stroke-miterlimit:10;" d="M 213.9375 194.722656 L 221.199219 199.960938 "/>
<path style="fill:none;stroke-width:1.2;stroke-linecap:butt;stroke-linejoin:miter;stroke:rgb(0%,0%,0%);stroke-opacity:1;stroke-miterlimit:10;" d="M 221.199219 199.960938 L 228.457031 205.203125 "/>
<path style=" stroke:none;fill-rule:nonzero;fill:rgb(100%,100%,100%);fill-opacity:1;" d="M 209.9375 189.222656 L 217.9375 189.222656 L 217.9375 200.222656 L 209.9375 200.222656 Z M 209.9375 189.222656 "/>
<g style="fill:rgb(100%,0%,0%);fill-opacity:1;">
  <use xlink:href="#glyph0-2" x="209.9375" y="197.885742"/>
</g>
<path style="fill:none;stroke-width:1.2;stroke-linecap:butt;stroke-linejoin:miter;stroke:rgb(0%,0%,100%);stroke-opacity:1;stroke-miterlimit:10;" d="M 166.722656 162.527344 L 157.769531 162.554688 "/>
<path style="fill:none;stroke-width:1.2;stroke-linecap:butt;stroke-linejoin:miter;stroke:rgb(0%,0%,0%);stroke-opacity:1;stroke-miterlimit:10;" d="M 157.769531 162.554688 L 148.816406 162.585938 "/>
<path style="fill:none;stroke-width:1.2;stroke-linecap:butt;stroke-linejoin:miter;stroke:rgb(0%,0%,100%);stroke-opacity:1;stroke-miterlimit:10;" d="M 164.917969 158.320312 L 157.753906 158.34375 "/>
<path style="fill:none;stroke-width:1.2;stroke-linecap:butt;stroke-linejoin:miter;stroke:rgb(0%,0%,0%);stroke-opacity:1;stroke-miterlimit:10;" d="M 157.753906 158.34375 L 150.59375 158.367188 "/>
<path style=" stroke:none;fill-rule:nonzero;fill:rgb(100%,100%,100%);fill-opacity:1;" d="M 163.722656 157.027344 L 170.722656 157.027344 L 170.722656 168.027344 L 163.722656 168.027344 Z M 163.722656 157.027344 "/>
<g style="fill:rgb(0%,0%,100%);fill-opacity:1;">
  <use xlink:href="#glyph0-1" x="163.722656" y="165.69043"/>
</g>
<path style="fill:none;stroke-width:1.2;stroke-linecap:butt;stroke-linejoin:miter;stroke:rgb(0%,0%,0%);stroke-opacity:1;stroke-miterlimit:10;" d="M 148.816406 162.585938 L 138.339844 177.101562 "/>
<path style="fill:none;stroke-width:1.2;stroke-linecap:butt;stroke-linejoin:miter;stroke:rgb(0%,0%,0%);stroke-opacity:1;stroke-miterlimit:10;" d="M 138.339844 177.101562 L 120.527344 175.289062 "/>
<path style="fill:none;stroke-width:1.2;stroke-linecap:butt;stroke-linejoin:miter;stroke:rgb(0%,0%,0%);stroke-opacity:1;stroke-miterlimit:10;" d="M 136.132812 181.113281 L 121.882812 179.660156 "/>
<path style="fill:none;stroke-width:1.2;stroke-linecap:butt;stroke-linejoin:miter;stroke:rgb(0%,0%,0%);stroke-opacity:1;stroke-miterlimit:10;" d="M 145.675781 193.433594 L 138.339844 177.101562 "/>
<path style="fill:none;stroke-width:1.2;stroke-linecap:butt;stroke-linejoin:miter;stroke:rgb(0%,0%,0%);stroke-opacity:1;stroke-miterlimit:10;" d="M 120.527344 175.289062 L 110.050781 189.804688 "/>
<path style="fill:none;stroke-width:1.2;stroke-linecap:butt;stroke-linejoin:miter;stroke:rgb(0%,0%,0%);stroke-opacity:1;stroke-miterlimit:10;" d="M 110.050781 189.804688 L 117.386719 206.136719 "/>
<path style="fill:none;stroke-width:1.2;stroke-linecap:butt;stroke-linejoin:miter;stroke:rgb(0%,0%,0%);stroke-opacity:1;stroke-miterlimit:10;" d="M 114.628906 189.714844 L 120.496094 202.78125 "/>
<path style="fill:none;stroke-width:1.2;stroke-linecap:butt;stroke-linejoin:miter;stroke:rgb(0%,0%,0%);stroke-opacity:1;stroke-miterlimit:10;" d="M 117.386719 206.136719 L 135.199219 207.953125 "/>
<path style="fill:none;stroke-width:1.2;stroke-linecap:butt;stroke-linejoin:miter;stroke:rgb(0%,0%,0%);stroke-opacity:1;stroke-miterlimit:10;" d="M 135.199219 207.953125 L 145.675781 193.433594 "/>
<path style="fill:none;stroke-width:1.2;stroke-linecap:butt;stroke-linejoin:miter;stroke:rgb(0%,0%,0%);stroke-opacity:1;stroke-miterlimit:10;" d="M 132.828125 204.035156 L 141.210938 192.421875 "/>
</g>
</svg>

<svg xmlns="http://www.w3.org/2000/svg" xmlns:xlink="http://www.w3.org/1999/xlink" width="300pt" height="300pt" viewBox="0 0 300 300"><defs><symbol overflow="visible"><path d="M.453 1.594v-7.938h4.5v7.938zm.5-.5h3.5v-6.938h-3.5zm0 0"/></symbol><symbol overflow="visible" id="a"><path d="M.89-6.563H2.08l2.906 5.485v-5.484h.86V0H4.656L1.75-5.484V0H.89zm0 0"/></symbol><symbol overflow="visible" id="b"><path d="M3.547-5.953c-.65 0-1.164.242-1.547.72-.375.48-.563 1.13-.563 1.952 0 .835.188 1.49.563 1.967.383.48.898.72 1.547.72.644 0 1.156-.24 1.53-.72.376-.476.564-1.132.564-1.968 0-.822-.187-1.474-.562-1.954-.375-.477-.887-.72-1.53-.72zm0-.734c.914 0 1.648.312 2.203.937.55.617.828 1.438.828 2.47 0 1.042-.277 1.87-.828 2.483-.555.617-1.29.922-2.203.922-.93 0-1.668-.305-2.22-.922C.774-1.41.5-2.237.5-3.28c0-1.033.273-1.853.828-2.47.55-.625 1.29-.938 2.22-.938zm0 0"/></symbol></defs><g><path fill="#fff" d="M0 0h300v300H0z"/><path d="M35.25 159.73l17.047 5.477M52.297 165.207l6.633-6.008" stroke-width="1.2" stroke="#000" stroke-miterlimit="10" fill="none"/><path d="M58.93 159.2l6.633-6.012M65.563 153.188l-1.89-8.75" stroke-width="1.2" stroke="#00f" stroke-miterlimit="10" fill="none"/><path d="M63.672 144.438l-1.89-8.75" stroke-width="1.2" stroke="#000" stroke-miterlimit="10" fill="none"/><path d="M65.563 153.188l8.523 2.738" stroke-width="1.2" stroke="#00f" stroke-miterlimit="10" fill="none"/><path d="M74.086 155.926l8.52 2.738" stroke-width="1.2" stroke="#000" stroke-miterlimit="10" fill="none"/><path d="M62.563 147.688h7v11h-7zm0 0" fill="#fff"/><use xlink:href="#a" x="62.563" y="156.351" fill="#00f"/><path d="M61.78 135.688l-17.042-5.48M82.605 158.664l13.27-12.023M95.875 146.64l17.043 5.48M112.918 152.12l13.266-12.022M126.184 140.098l-3.778-17.5M126.184 140.098l8.523 2.738" stroke-width="1.2" stroke="#000" stroke-miterlimit="10" fill="none"/><path d="M134.707 142.836l8.523 2.738M143.23 145.574l7.227-5.285" stroke-width="1.2" stroke="#00f" stroke-miterlimit="10" fill="none"/><path d="M150.457 140.29l7.223-5.286M148.816 162.586l-2.793-8.508" stroke-width="1.2" stroke="#000" stroke-miterlimit="10" fill="none"/><path d="M146.023 154.078l-2.793-8.504" stroke-width="1.2" stroke="#00f" stroke-miterlimit="10" fill="none"/><path d="M140.23 140.074h7v11h-7zm0 0" fill="#fff"/><use xlink:href="#a" x="140.23" y="148.737" fill="#00f"/><path d="M157.68 135.004l14.52 10.476M161.598 132.637l11.613 8.383" stroke-width="1.2" stroke="#000" stroke-miterlimit="10" fill="none"/><path d="M159.496 117.19l-.91 8.908" stroke-width="1.2" stroke="#00f" stroke-miterlimit="10" fill="none"/><path d="M158.586 126.098l-.906 8.906M172.2 145.48l16.33-7.332M172.2 145.48l-2.74 8.524" stroke-width="1.2" stroke="#000" stroke-miterlimit="10" fill="none"/><path d="M169.46 154.004l-2.737 8.523" stroke-width="1.2" stroke="#00f" stroke-miterlimit="10" fill="none"/><path d="M188.53 138.148l.907-8.906" stroke-width="1.2" stroke="#000" stroke-miterlimit="10" fill="none"/><path d="M189.438 129.242l.906-8.906" stroke-width="1.2" stroke="#00f" stroke-miterlimit="10" fill="none"/><path d="M184.52 135.938l.726-7.122" stroke-width="1.2" stroke="#000" stroke-miterlimit="10" fill="none"/><path d="M185.246 128.816l.727-7.125" stroke-width="1.2" stroke="#00f" stroke-miterlimit="10" fill="none"/><path d="M188.53 138.148l7.26 5.24" stroke-width="1.2" stroke="#000" stroke-miterlimit="10" fill="none"/><path d="M195.79 143.387l7.26 5.238M190.344 120.336l-7.258-5.238" stroke-width="1.2" stroke="#00f" stroke-miterlimit="10" fill="none"/><path d="M183.086 115.098l-7.258-5.24" stroke-width="1.2" stroke="#000" stroke-miterlimit="10" fill="none"/><path d="M187.344 114.836h7v11h-7zm0 0" fill="#fff"/><use xlink:href="#a" x="187.344" y="123.499" fill="#00f"/><path d="M175.828 109.86l-8.168 3.667" stroke-width="1.2" stroke="#000" stroke-miterlimit="10" fill="none"/><path d="M167.66 113.527l-8.164 3.664" stroke-width="1.2" stroke="#00f" stroke-miterlimit="10" fill="none"/><path d="M175.918 114.434l-6.53 2.933" stroke-width="1.2" stroke="#000" stroke-miterlimit="10" fill="none"/><path d="M169.387 117.367l-6.532 2.934" stroke-width="1.2" stroke="#00f" stroke-miterlimit="10" fill="none"/><path d="M175.828 109.86l1.813-17.813" stroke-width="1.2" stroke="#000" stroke-miterlimit="10" fill="none"/><path d="M156.496 111.69h7v11h-7zm0 0" fill="#fff"/><use xlink:href="#a" x="156.496" y="120.354" fill="#00f"/><path d="M203.05 148.625l8.165-3.668" stroke-width="1.2" stroke="#00f" stroke-miterlimit="10" fill="none"/><path d="M211.215 144.957l8.168-3.668" stroke-width="1.2" stroke="#000" stroke-miterlimit="10" fill="none"/><path d="M203.05 148.625l-.91 8.906" stroke-width="1.2" stroke="#00f" stroke-miterlimit="10" fill="none"/><path d="M202.14 157.53l-.906 8.907" stroke-width="1.2" stroke="#000" stroke-miterlimit="10" fill="none"/><path d="M200.05 143.125h7v11h-7zm0 0" fill="#fff"/><use xlink:href="#a" x="200.051" y="151.788" fill="#00f"/><path d="M219.383 141.29l14.515 10.476M233.898 151.766l8.168-3.668" stroke-width="1.2" stroke="#000" stroke-miterlimit="10" fill="none"/><path d="M242.066 148.098l8.164-3.664M250.23 144.434l7.262 5.238" stroke-width="1.2" stroke="#f00" stroke-miterlimit="10" fill="none"/><path d="M257.492 149.672l7.258 5.238" stroke-width="1.2" stroke="#000" stroke-miterlimit="10" fill="none"/><path d="M246.23 138.934h8v11h-8zm0 0" fill="#fff"/><use xlink:href="#b" x="246.23" y="147.597" fill="#f00"/><path d="M201.234 166.438l14.52 10.476M215.754 176.914l-.906 8.906" stroke-width="1.2" stroke="#000" stroke-miterlimit="10" fill="none"/><path d="M214.848 185.82l-.91 8.903M213.938 194.723l7.26 5.238" stroke-width="1.2" stroke="#f00" stroke-miterlimit="10" fill="none"/><path d="M221.2 199.96l7.257 5.243" stroke-width="1.2" stroke="#000" stroke-miterlimit="10" fill="none"/><path d="M209.938 189.223h8v11h-8zm0 0" fill="#fff"/><use xlink:href="#b" x="209.938" y="197.886" fill="#f00"/><path d="M166.723 162.527l-8.953.028" stroke-width="1.2" stroke="#00f" stroke-miterlimit="10" fill="none"/><path d="M157.77 162.555l-8.954.03" stroke-width="1.2" stroke="#000" stroke-miterlimit="10" fill="none"/><path d="M164.918 158.32l-7.164.024" stroke-width="1.2" stroke="#00f" stroke-miterlimit="10" fill="none"/><path d="M157.754 158.344l-7.16.023" stroke-width="1.2" stroke="#000" stroke-miterlimit="10" fill="none"/><path d="M163.723 157.027h7v11h-7zm0 0" fill="#fff"/><use xlink:href="#a" x="163.723" y="165.69" fill="#00f"/><path d="M148.816 162.586l-10.476 14.516M138.34 177.102l-17.813-1.813M136.133 181.113l-14.25-1.453M145.676 193.434l-7.336-16.332M120.527 175.29l-10.476 14.515M110.05 189.805l7.337 16.332M114.63 189.715l5.866 13.066M117.387 206.137l17.812 1.816M135.2 207.953l10.476-14.52M132.828 204.035l8.383-11.613" stroke-width="1.2" stroke="#000" stroke-miterlimit="10" fill="none"/></g></svg>
